packages/ui-icons/svg/Solid/expand-start.svg

<svg viewBox="0 0 1920 1920" version="1.1" xmlns="http://www.w3.org/2000/svg">
    <path d="M1637.71751 1.13686838e-13C1731.11711 1.13686838e-13 1807.12429 76.0071763 1807.12429 169.406782L1807.12429 1750.53675C1807.12429 1844.04929 1731.11711 1919.94353 1637.71751 1919.94353L451.870033 1919.94353 451.870033 1.13686838e-13 1637.71751 1.13686838e-13zM1158.70144 581L1078.83997 660.861472 1321.26217 903.283677 667 903.283677 667 1016.22485 1321.26217 1016.22485 1078.83997 1258.64706 1158.70144 1338.50853 1537.4557 959.754265 1158.70144 581zM225.937855 1920L338.87571 1920 338.87571.0564689274 225.937855.0564689274z" stroke="none" stroke-width="1" fill-rule="evenodd"/>
</svg>

<svg viewBox="0 0 1920 1920" xmlns="http://www.w3.org/2000/svg">
    <path d="M1637.718 0c93.4 0 169.406 76.007 169.406 169.407v1581.13c0 93.512-76.007 169.407-169.406 169.407H451.87V0h1185.848zM1158.7 581l-79.861 79.861 242.422 242.423H667v112.94h654.262l-242.422 242.423 79.861 79.862 378.755-378.755L1158.7 581zM225.938 1920h112.938V.056H225.938z" fill-rule="evenodd"/>
</svg>
